X: 305798
M: 6/8
L: 1/8
K: G
cBc edc | ABc GAB | cBc edc | Bdg g2G |\
cBc edc | ABc GAB | ceg fdB | d3 c2 H|]
d |\
ded cBA | GBd g2g | ^fef def | gba g2G |\
ded cBA | GBd g2g | a2^f d2f | g3 "^D.C."g2 |]


